X:18
T:6. Ronde
C:Tielman Susato
B:Tielman Susato: Danserye (1551) no. 18
R:Ronde
Z:Transcribed by Frank Nordberg - http://www.musicaviva.com
F:http://abc.musicaviva.com/tunes/susato-tielman/susato-1551-18.abc
M:4/2
L:1/2
K:F
V:1
FF/G/A2|A/B/c/A/BG|GGGG|G/A/B/G/AF|FF/G/AA|A/B/c/A/BG|
V:2
CCF2|FE/F/GE|DDEE|EDFC|DCFF|FE/F/GE|
V:3
A,A,/B,/C2|CCDC|B,B,CC|CB,CA,|A,A,/B,/CC|CCDC|
V:4
F,F,F,2|F,A,G,C,|G,G,C,C,|C,G,F,F,|D,F,F,F,|F,/G,/A,G,C,|
%
V:1
G/A/B/G/AG/F/|E/D/F/E/F2::ccAA|ddc2|A/B/c/A/ B/A/G/F/|E/D/F/E/F2:|
V:2
DDFD|C/B,/CA,2::FFFF|FFF2|FF/F/FD|C/B,/CA,2:|
V:3
B,B,CB,/A,/|G,/F,/G,F,2::A,>B,CA,|B,B,A,>B,|CCD/C/B,/A,/|G,/F,/G,F,2:|
V:4
G,G,F,B,,|C,/D,/C,F,,2::F,F,F,F,|B,,B,,F,2|F,F,/F,/B,,B,,|C,/D,/C,F,,2:|
W:
W:
W:  From Musica Viva - http://www.musicaviva.com
W:  the Internet center for free sheet music downloads.
